usr/share/icons/biglinux-icons-material/scalable/apps/system-save-session.svg

<svg width="24" height="24" viewBox="0 0 24 24" fill="none" xmlns="http://www.w3.org/2000/svg">
<path fill-rule="evenodd" clip-rule="evenodd" d="M9.3775 0.123915C9.50824 0.125307 9.6332 0.108652 9.75239 0.073954C11.3187 -0.0286516 12.8849 -0.0244899 14.451 0.0864444C15.871 0.197086 17.2456 0.505183 18.5748 1.01073C20.7846 1.92048 22.2966 3.49843 23.1109 5.74457C23.5766 7.0969 23.8516 8.4875 23.9357 9.91634C24.0521 11.7106 24.0105 13.5009 23.8107 15.2872C23.6612 16.5427 23.3363 17.7501 22.836 18.9094C21.9081 20.9194 20.4044 22.3058 18.3249 23.0687C16.6398 23.6381 14.9069 23.9378 13.1264 23.968C11.1236 24.0721 9.14087 23.9222 7.17815 23.5183C3.56552 22.7136 1.337 20.5111 0.49263 16.9109C0.134306 15.2903 -0.0281463 13.6499 0.00527377 11.9897C-0.0347169 10.2244 0.152728 8.4841 0.567607 6.76878C1.45278 3.40263 3.58964 1.31674 6.97821 0.511116C7.7678 0.318078 8.56757 0.18901 9.3775 0.123915Z" fill="url(#paint0_radial_6_2)"/>
<path d="M16.805 4.36039C16.6907 4.24611 16.555 4.15546 16.4057 4.09362C16.2563 4.03179 16.0963 3.99997 15.9346 4H5.7777C5.54423 3.99995 5.31304 4.04589 5.09734 4.13521C4.88164 4.22453 4.68565 4.35548 4.52056 4.52056C4.35548 4.68565 4.22453 4.88164 4.13521 5.09734C4.04589 5.31305 3.99995 5.54423 4 5.77769V18.2223C3.99995 18.4558 4.0459 18.687 4.13521 18.9027C4.22453 19.1184 4.35548 19.3144 4.52056 19.4794C4.68564 19.6445 4.88164 19.7755 5.09734 19.8648C5.31304 19.9541 5.54423 20.0001 5.7777 20H18.2223C18.6933 19.9986 19.1447 19.8108 19.4778 19.4778C19.8108 19.1447 19.9986 18.6933 20 18.2223V8.06539C20 7.90375 19.9682 7.74369 19.9064 7.59435C19.8445 7.44501 19.7539 7.30931 19.6396 7.195L16.805 4.36039Z" stroke="#FAFAFA" stroke-width="2" stroke-linecap="round" stroke-linejoin="round"/>
<path d="M8 4H14.5C14.7761 4 15 4.22386 15 4.5V9.5C15 9.77614 14.7761 10 14.5 10H8.5C8.22386 10 8 9.77614 8 9.5V4Z" stroke="#FAFAFA" stroke-width="2"/>
<circle cx="12" cy="15" r="1.5" stroke="#FAFAFA" stroke-width="2"/>
<rect x="9" y="4" width="3" height="6" fill="#FAFAFA"/>
<defs>
<radialGradient id="paint0_radial_6_2" cx="0" cy="0" r="1" gradientUnits="userSpaceOnUse" gradientTransform="translate(12) rotate(90) scale(24)">
<stop stop-color="#A0FF9D"/>
<stop offset="1" stop-color="#246023"/>
</radialGradient>
</defs>
</svg>

<svg xmlns="http://www.w3.org/2000/svg" width="24" height="24" fill="none"><path fill="url(#a)" fill-rule="evenodd" d="M9.377.124c.131.001.256-.015.375-.05a34.502 34.502 0 0 1 4.699.012c1.42.111 2.795.42 4.124.925 2.21.91 3.722 2.487 4.536 4.734.466 1.352.74 2.743.825 4.171a30.475 30.475 0 0 1-.125 5.371 12.962 12.962 0 0 1-.975 3.622c-.928 2.01-2.432 3.397-4.511 4.16-1.685.57-3.418.869-5.199.899a23.372 23.372 0 0 1-5.948-.45c-3.612-.804-5.841-3.007-6.685-6.607a20.778 20.778 0 0 1-.488-4.921c-.04-1.766.148-3.506.563-5.221C1.453 3.403 3.59 1.317 6.978.51c.79-.193 1.59-.322 2.4-.387Z" clip-rule="evenodd"/><path stroke="#FAFAFA" stroke-linecap="round" stroke-linejoin="round" stroke-width="2" d="M16.805 4.36a1.231 1.231 0 0 0-.87-.36H5.778A1.777 1.777 0 0 0 4 5.778v12.444A1.778 1.778 0 0 0 5.778 20h12.444A1.783 1.783 0 0 0 20 18.222V8.065a1.232 1.232 0 0 0-.36-.87L16.805 4.36Z"/><path stroke="#FAFAFA" stroke-width="2" d="M8 4h6.5a.5.5 0 0 1 .5.5v5a.5.5 0 0 1-.5.5h-6a.5.5 0 0 1-.5-.5V4Z"/><circle cx="12" cy="15" r="1.5" stroke="#FAFAFA" stroke-width="2"/><path fill="#FAFAFA" d="M9 4h3v6H9z"/><defs><radialGradient id="a" cx="0" cy="0" r="1" gradientTransform="matrix(0 24 -24 0 12 0)" gradientUnits="userSpaceOnUse"><stop stop-color="#A0FF9D"/><stop offset="1" stop-color="#246023"/></radialGradient></defs></svg>
